X:241
T:Hé! j'ai veu le temps (Chanson 18)
S:from bay18.MID
C:Manuscript de Bayeux (fin XVe)
R:Chanson
M:4/4
L:1/8
Q:1/4=120
K:C 
V:1
C2 G2 A2 B2 | c3B/2A/2 GA BB | c2zc d3/2c/2 BA | G4 A3G/2F/2 | 
EF DD C2zG | GG FE D2z2 | C2 G2 A2 B2 | c3B/2A/2 GA BB | 
c2zc d3/2c/2 BA | G4 A3G/2F/2 | EF DD C2zG | GG FE D2z2 | 
A3G/2F/2 EF DD | C2zG GG FE | D2zD A2 B2 | G2zG AA BB | 
c2z2 c4 | B2 B2 A2zA | d2 B2 c2 A2 | G2z2 c2 AA | 
GG GG CC G3/2z/2 | zG A2 B2 A2- | AA GA GF/2E/2 F2 | E4 G4 | 
D2 F2 E2zA | A2 c2 BA/2G/2 A2 | G2z2 G4 | D2 F2 E2zE | FF DD C4 |]
V:2
C2 CC C2 CC | C2 CC C2 CC | C2 CC C2 CC | C2 CC C2 CC | 
C2 CC C2 CC | C2 CC C2 CC | C2 CC C2 CC | C2 CC C2 CC | 
C2 CC C2 CC | C2 CC C2 CC | C2 CC C2 CC | C2 CC C2 CC | 
C2 CC C2 CC | C2 CC C2 CC | C2 CC C2 CC | C2 CC C2 CC | 
C2 CC C2 CC | C2 CC C2 CC | C2 CC C2 CC | C2 CC C2 CC | 
C2 CC C2 CC | C2 CC C2 CC | C2 CC C2 CC | C2 CC C2 CC | 
C2 CC C2 CC | C2 CC C2 CC | C2 CC C2 CC | C2 CC C2 CC | C2 CC C4 |]





